X:10
T:East Meets West
C:Chris Perry
S:The Fiddle Player's Tunebook 1
Z:I'm not sure if this is danceable but it's a lot of fun to play
M:3/4
L:1/8
K:F
|:"Dm"DF Ad fa |"Dm"fd Ad FA |"Dm"DF Ad fa |"Dm"gf ed ^cd |
"A"e2 ef ed |"A"^c2 ^cd ^cd |"A"e2 eg fe |"Dm"|1 .d2 .A2 .F2 :|2
"Dm"d4 A2 |: "Gm"BA GB AG |"Dm"AG FA GF |"A"GF EG FE |"Dm"DE F2 D2 |
"Gm"BA GB AG |"Dm"A2 d3 d |"A"^cd e^c A^c |"Dm"d4 A2 ::
K:D
"D"DF AF DF |"A".E2 .C2 .A,2 |"G"G,B, DG B2 |"D"A2 F2 D2 |
"D"d2 de fd |"A"e2 c2 A2 |"G"BA GF E2 |"D"|1 D4 E2 :|2\
"D"[D4 A4] ||
